X:1
T:Step by Step
T:Step by Step
T:Albert Benjamin Simpson
T:Albert Benjamin Simpson, 1897
T:Public Domain Courtesy of the Cyber Hymnal™
C:Albert Benjamin Simpson
Z:Public Domain
Z:Courtesy of the Cyber Hymnal™
%%score ( 1 2 ) ( 3 4 )
L:1/8
Q:1/4=110
M:4/4
K:F
V:1 treble 
V:2 treble 
V:3 bass 
V:4 bass 
V:1
 C2 (DE) [A,F]3 [CA] | [DG]2 [DF]2 [B,D] [DF]3 | [CF]2 [FA]2 [Fc]3 [FA] | [FG]2 [FA]2 [EG]4 | %4
w: 1.~’Tis so * sweet to|walk with Je- sus,|Step by step and|day by day;|
w: 2.~’Tis so * safe to|walk with Je- sus,|Lean- ing hard up-|on His arm,|
w: 3.~Step by * step I’ll|walk with Je- sus,|Just a mo- ment|at a time;|
w: 4.~Je- sus * keep me|clos- er— clos- er,|Step by step and|day by day;|
 C2 (DE) [A,F]3 [CA] | [CG]2 [CF]2 [FA] [Fc]3 | [DB]2 [Fd]2 [Fc]3 [FA] | [EG]2 [EA]2 F4 || %8
w: Step- ping * in His|ve- ry foot- prints,|Walk- ing with Him|all the way.|
w: Foll- owing * close- ly|where He leads us,|None can hurt and|naught can harm.|
w: Heights I * have not|wings to soar to|Step by step my|feet can climb.|
w: Step- ping * in Thy|ve- ry foot- prints|Walk- ing with Thee|all the way.|
"^Refrain" [FA]2 [CF]2 c4 | [Ff]2 [Fd]2 [Fc]4 | [Fc]3 [Fd] [Fc]2 [FA]2 | [FA]4 [EG]4 | %12
w: ||||
w: Step by step,|step by step,|I would walk with|Je- sus,|
w: ||||
w: ||||
 [FA]2 F2 [Fc]4 | [Ff]2 [Fd]2 [Fc]4 | [Fc]3 [Fd] [Fc]2 [FA]2 | [EG]4 [CF]4 |] %16
w: ||||
w: All the day,|all the way,|Keep- ing step with|Je- sus.|
w: ||||
w: ||||
V:2
 C2 B,2 x4 | x8 | x8 | x8 | C2 B,2 x4 | x8 | x8 | x4 F4 || x4 (F2 A2) | x8 | x8 | x8 | x2 F2 x4 | %13
 x8 | x8 | x8 |] %16
V:3
 [F,A,]2 F,2 F,3 F, | [B,,B,]2 [B,,B,]2 [B,,F,] [B,,B,]3 | [F,A,]2 [F,C]2 [F,A,]3 [F,C] | %3
w: ~ ~ ~ ~|~ ~ ~ ~|~ ~ ~ ~|
 [D,=B,]2 [G,,B,]2 [C,C]4 | [F,A,]2 F,2 F,3 F, | [C,B,]2 [F,A,]2 [F,C] [F,A,]3 | %6
w: ~ ~ ~|~ ~ ~ ~|~ ~ ~ ~|
 [B,,B,]2 [B,,B,]2 [F,A,]3 [C,C] | [C,B,]2 [C,B,]2 [F,A,]4 || [F,C]2 [F,A,]2 (A,2 C2) | %9
w: ~ ~ ~ ~|~ ~ ~|~ ~ ~ *|
 [F,D]2 [F,B,]2 [F,A,]4 | [F,A,]3 [F,B,] [F,A,]2 [F,C]2 | [F,C]2 [D,=B,]2 [C,C]2 [C,C]2 | %12
w: ~ ~ ~|~ ~ ~ ~|walk with Je- sus|
 [F,C]2 [F,A,]2 A,4 | [D,B,]2 [B,,B,]2 [F,A,]4 | [F,A,]3 [F,B,] [F,A,]2 [F,C]2 | %15
w: |||
 (C2 B,2) [F,A,]4 |] %16
w: |
V:4
 x2 F,2 F,3 F, | x8 | x8 | x8 | x2 F,2 F,3 F, | x8 | x8 | x8 || x4 F,4 | x8 | x8 | x8 | %12
 x4 F,2 _E,2 | x8 | x8 | C,4 x4 |] %16

